X: 3904
T: Cape Town Wedding
P: Mr Dolph Morris' Strathspey
C:Pete Kier
R:Strathspey (8x32)
B:RSCDS 39-4
Z:Anselm Lingnau <anselm@strathspey.org>
M:4/4
L:1/8
K:F
c>B|"F"A2 A>G "Dm"F>G A<F|"Gm"B>A G>F "C7"E<c d>e|\
    "F"f>e d>c "Bb"d>c B>A|"Gm"B>A G>F "C7"G2 c>B|
    "F"A2 A>G "Dm"F>G A<F|"Gm"D<B G>F "C7"E>c d>e|\
    "F"f>e d>c "Bb"B<D F<B|"C7"A>C E<G "F"[F2A,2]||
c2|"F"A<c c>A "Gm"B>c d>B|"C7"G<B B>G "F"A>B c>A|\
   "Dm"F<A A>F "Gm"G>A B>G|"C7"c<C "b"C>C "a"c<C "g"C>c|
   "F"A<c c>A "Gm"B>c d>B|"C7"G<B B>G "F"A>B c>A|\
   "Dm"f2 f2 "Bb"e>d c>B|"C7"A>C E<G "F"[F2A,2]|]
%%center Book39/3904-Cape_Town_Wedding-AL.abc

%%sep 1 1 500
%%sep 1 1 500

